; G-Code generated by Simplify3D(R) Version 4.1.2
; Dec 27, 2023 at 6:42:34 PM
; Settings Summary
;   processName,Process1
;   applyToModels,Gear,Small Gear
;   profileName,Default (modified)
;   profileVersion,2015-05-01 08:00:00
;   baseProfile,
;   printMaterial,PLA
;   printQuality,Medium
;   printExtruders,
;   extruderName,Primary Extruder
;   extruderToolheadNumber,0
;   extruderDiameter,0.4
;   extruderAutoWidth,1
;   extruderWidth,0.48
;   extrusionMultiplier,1
;   extruderUseRetract,1
;   extruderRetractionDistance,1
;   extruderExtraRestartDistance,0
;   extruderRetractionZLift,0
;   extruderRetractionSpeed,1800
;   extruderUseCoasting,0
;   extruderCoastingDistance,0.2
;   extruderUseWipe,0
;   extruderWipeDistance,5
;   primaryExtruder,0
;   layerHeight,0.16
;   topSolidLayers,3
;   bottomSolidLayers,3
;   perimeterOutlines,2
;   printPerimetersInsideOut,1
;   startPointOption,2
;   startPointOriginX,0
;   startPointOriginY,0
;   sequentialIslands,0
;   spiralVaseMode,0
;   firstLayerHeightPercentage,90
;   firstLayerWidthPercentage,100
;   firstLayerUnderspeed,0.5
;   useRaft,0
;   raftExtruder,0
;   raftTopLayers,3
;   raftBaseLayers,2
;   raftOffset,3
;   raftSeparationDistance,0.14
;   raftTopInfill,100
;   aboveRaftSpeedMultiplier,0.3
;   useSkirt,1
;   skirtExtruder,0
;   skirtLayers,1
;   skirtOutlines,2
;   skirtOffset,4
;   usePrimePillar,0
;   primePillarExtruder,999
;   primePillarWidth,12
;   primePillarLocation,7
;   primePillarSpeedMultiplier,1
;   useOozeShield,0
;   oozeShieldExtruder,999
;   oozeShieldOffset,2
;   oozeShieldOutlines,1
;   oozeShieldSidewallShape,1
;   oozeShieldSidewallAngle,30
;   oozeShieldSpeedMultiplier,1
;   infillExtruder,0
;   internalInfillPattern,Rectilinear
;   externalInfillPattern,Rectilinear
;   infillPercentage,70
;   outlineOverlapPercentage,25
;   infillExtrusionWidthPercentage,100
;   minInfillLength,5
;   infillLayerInterval,2
;   internalInfillAngles,45,-45
;   overlapInternalInfillAngles,0
;   externalInfillAngles,45,-45
;   generateSupport,0
;   supportExtruder,0
;   supportInfillPercentage,30
;   supportExtraInflation,0
;   supportBaseLayers,0
;   denseSupportExtruder,0
;   denseSupportLayers,0
;   denseSupportInfillPercentage,70
;   supportLayerInterval,2
;   supportHorizontalPartOffset,0.5
;   supportUpperSeparationLayers,1
;   supportLowerSeparationLayers,1
;   supportType,0
;   supportGridSpacing,4
;   maxOverhangAngle,45
;   supportAngles,0
;   temperatureName,Primary Extruder
;   temperatureNumber,0
;   temperatureSetpointCount,1
;   temperatureSetpointLayers,1
;   temperatureSetpointTemperatures,190
;   temperatureStabilizeAtStartup,1
;   temperatureHeatedBed,0
;   fanLayers,1,2
;   fanSpeeds,0,100
;   blipFanToFullPower,0
;   adjustSpeedForCooling,1
;   minSpeedLayerTime,15
;   minCoolingSpeedSlowdown,20
;   increaseFanForCooling,0
;   minFanLayerTime,45
;   maxCoolingFanSpeed,100
;   increaseFanForBridging,0
;   bridgingFanSpeed,100
;   use5D,1
;   relativeEdistances,0
;   allowEaxisZeroing,1
;   independentExtruderAxes,0
;   includeM10123,0
;   stickySupport,1
;   applyToolheadOffsets,0
;   gcodeXoffset,0
;   gcodeYoffset,0
;   gcodeZoffset,0
;   overrideMachineDefinition,1
;   machineTypeOverride,0
;   strokeXoverride,300
;   strokeYoverride,300
;   strokeZoverride,400
;   originOffsetXoverride,0
;   originOffsetYoverride,0
;   originOffsetZoverride,0
;   homeXdirOverride,-1
;   homeYdirOverride,-1
;   homeZdirOverride,-1
;   flipXoverride,1
;   flipYoverride,-1
;   flipZoverride,1
;   toolheadOffsets,0,0|0,0|0,0|0,0|0,0|0,0
;   overrideFirmwareConfiguration,0
;   firmwareTypeOverride,RepRap (Marlin/Repetier/Sprinter)
;   GPXconfigOverride,r2
;   baudRateOverride,115200
;   overridePrinterModels,0
;   printerModelsOverride
;   startingGcode,G28 ; home all axes
;   layerChangeGcode,
;   retractionGcode,
;   toolChangeGcode,
;   endingGcode,M104 S0 ; turn off extruder,M140 S0 ; turn off bed,M84 ; disable motors
;   exportFileFormat,x3g
;   celebration,0
;   celebrationSong,Random Song
;   postProcessing,
;   defaultSpeed,3600
;   outlineUnderspeed,0.5
;   solidInfillUnderspeed,0.8
;   supportUnderspeed,0.8
;   rapidXYspeed,4800
;   rapidZspeed,1000
;   minBridgingArea,50
;   bridgingExtraInflation,0
;   bridgingExtrusionMultiplier,1
;   bridgingSpeedMultiplier,1
;   useFixedBridgingAngle,0
;   fixedBridgingAngle,0
;   applyBridgingToPerimeters,0
;   filamentDiameters,1.75|1.75|1.75|1.75|1.75|1.75
;   filamentPricesPerKg,46|46|46|46|46|46
;   filamentDensities,1.25|1.25|1.25|1.25|1.25|1.25
;   useMinPrintHeight,0
;   minPrintHeight,0
;   useMaxPrintHeight,0
;   maxPrintHeight,0
;   useDiaphragm,0
;   diaphragmLayerInterval,20
;   robustSlicing,1
;   mergeAllIntoSolid,0
;   onlyRetractWhenCrossingOutline,1
;   retractBetweenLayers,1
;   useRetractionMinTravel,0
;   retractionMinTravel,3
;   retractWhileWiping,0
;   onlyWipeOutlines,1
;   avoidCrossingOutline,0
;   maxMovementDetourFactor,3
;   toolChangeRetractionDistance,12
;   toolChangeExtraRestartDistance,-0.5
;   toolChangeRetractionSpeed,600
;   externalThinWallType,0
;   internalThinWallType,2
;   thinWallAllowedOverlapPercentage,10
;   singleExtrusionMinLength,1
;   singleExtrusionMinPrintingWidthPercentage,50
;   singleExtrusionMaxPrintingWidthPercentage,200
;   singleExtrusionEndpointExtension,0.2
;   horizontalSizeCompensation,0
G90
M82
M106 S0
M104 S190 T0
M109 S190 T0
G28 ; home all axes
; process Process1
; layer 1, Z = 0.144
T0
G92 E0.0000
G1 E-1.0000 F1800
; feature skirt
; tool H0.144 W0.480
G1 Z0.144 F1000
G1 X136.305 Y141.089 F4800
G1 E0.0000 F1800
G92 E0.0000
G1 X137.569 Y139.897 E0.0499 F1800
G1 X137.710 Y139.838 E0.0543
G1 X138.138 Y139.422 E0.0715
G1 X138.524 Y139.232 E0.0838
G1 X138.618 Y139.116 E0.0881
G1 X139.895 Y138.378 E0.1305
G1 X139.931 Y138.343 E0.1320
G1 X140.030 Y138.301 E0.1351
G1 X140.124 Y138.246 E0.1382
G1 X140.174 Y138.238 E0.1396
G1 X141.284 Y137.759 E0.1744
G1 X141.325 Y137.728 E0.1759
G1 X141.428 Y137.697 E0.1790
G1 X141.527 Y137.655 E0.1820
G1 X141.577 Y137.653 E0.1835
G1 X142.990 Y137.230 E0.2259
G1 X143.143 Y137.241 E0.2303
G1 X143.712 Y137.061 E0.2474
G1 X144.142 Y137.064 E0.2598
G1 X144.278 Y137.003 E0.2641
G1 X146.013 Y136.902 E0.3140
G1 X146.161 Y136.949 E0.3185
G1 X146.940 Y136.929 E0.3409
G1 X147.211 Y137.000 E0.3489
G1 X147.291 Y136.986 E0.3513
G1 X148.718 Y137.238 E0.3929
G1 X148.821 Y137.230 E0.3959
G1 X150.486 Y137.728 E0.4458
G1 X150.608 Y137.822 E0.4502
G1 X151.389 Y138.043 E0.4736
G1 X151.631 Y138.237 E0.4825
G1 X151.688 Y138.246 E0.4841
G1 X153.194 Y139.116 E0.5341
G1 X153.230 Y139.161 E0.5358
G1 X153.329 Y139.199 E0.5388
G1 X154.114 Y139.844 E0.5680
G1 X154.243 Y139.897 E0.5720
G1 X155.105 Y140.711 E0.6061
G1 X155.471 Y140.174 E0.6247
G1 X155.807 Y139.303 E0.6515
G1 X157.458 Y137.801 E0.7157
G1 X158.725 Y137.445 E0.7535
G1 X159.833 Y136.944 E0.7885
G1 X161.867 Y136.944 E0.8469
G1 X162.975 Y137.445 E0.8818
G1 X164.145 Y137.774 E0.9168
G1 X165.703 Y139.081 E0.9752
G1 X166.230 Y140.177 E1.0102
G1 X166.916 Y141.181 E1.0451
G1 X167.269 Y143.183 E1.1035
G1 X166.968 Y144.362 E1.1385
G1 X166.848 Y145.572 E1.1734
G1 X165.831 Y147.333 E1.2319
G1 X164.844 Y148.042 E1.2668
G1 X163.973 Y148.892 E1.3018
G1 X162.063 Y149.587 E1.3602
G1 X160.850 Y149.496 E1.3951
G1 X159.637 Y149.587 E1.4301
G1 X158.963 Y149.342 E1.4507
G1 X158.963 Y150.896 E1.4954
G1 X158.930 Y150.986 E1.4981
G1 X158.960 Y151.513 E1.5133
G1 X158.804 Y152.020 E1.5285
G1 X158.824 Y152.168 E1.5328
G1 X158.423 Y153.860 E1.5828
G1 X158.364 Y153.946 E1.5858
G1 X157.986 Y154.986 E1.6176
G1 X157.975 Y155.089 E1.6206
G1 X157.195 Y156.642 E1.6705
G1 X157.085 Y156.744 E1.6748
G1 X156.957 Y157.047 E1.6843
G1 X156.529 Y157.584 E1.7040
G1 X156.477 Y157.735 E1.7086
G1 X155.529 Y158.864 E1.7510
G1 X155.507 Y158.911 E1.7525
G1 X155.428 Y158.985 E1.7556
G1 X155.359 Y159.067 E1.7586
G1 X155.315 Y159.092 E1.7601
G1 X154.242 Y160.103 E1.8025
G1 X154.146 Y160.143 E1.8055
G1 X153.259 Y160.804 E1.8372
G1 X153.193 Y160.884 E1.8402
G1 X151.688 Y161.753 E1.8902
G1 X151.540 Y161.777 E1.8945
G1 X151.099 Y162.072 E1.9097
G1 X150.588 Y162.194 E1.9248
G1 X150.487 Y162.271 E1.9285
G1 X148.822 Y162.770 E1.9784
G1 X148.669 Y162.759 E1.9829
G1 X148.099 Y162.939 E2.0000
G1 X147.670 Y162.936 E2.0124
G1 X147.533 Y162.997 E2.0167
G1 X146.062 Y163.083 E2.0590
G1 X146.013 Y163.098 E2.0605
G1 X145.906 Y163.092 E2.0636
G1 X145.798 Y163.098 E2.0667
G1 X145.750 Y163.083 E2.0681
G1 X144.542 Y163.013 E2.1029
G1 X144.492 Y163.022 E2.1044
G1 X144.386 Y163.003 E2.1075
G1 X144.278 Y162.997 E2.1106
G1 X144.232 Y162.976 E2.1120
G1 X142.781 Y162.720 E2.1544
G1 X142.649 Y162.642 E2.1588
G1 X142.059 Y162.548 E2.1759
G1 X141.677 Y162.352 E2.1883
G1 X141.527 Y162.345 E2.1926
G1 X140.174 Y161.761 E2.2350
G1 X140.124 Y161.753 E2.2364
G1 X140.030 Y161.700 E2.2395
G1 X139.931 Y161.657 E2.2426
G1 X139.895 Y161.621 E2.2441
G1 X138.847 Y161.016 E2.2788
G1 X138.798 Y161.002 E2.2803
G1 X138.711 Y160.938 E2.2834
G1 X138.618 Y160.884 E2.2865
G1 X138.586 Y160.845 E2.2880
G1 X137.404 Y159.965 E2.3303
G1 X137.324 Y159.838 E2.3346
G1 X136.878 Y159.550 E2.3499
G1 X136.564 Y159.129 E2.3650
G1 X136.452 Y159.067 E2.3686
G1 X135.505 Y157.938 E2.4110
G1 X135.463 Y157.908 E2.4125
G1 X135.404 Y157.818 E2.4155
G1 X135.335 Y157.735 E2.4186
G1 X135.318 Y157.687 E2.4201
G1 X134.508 Y156.456 E2.4625
G1 X134.496 Y156.399 E2.4641
G1 X134.424 Y156.320 E2.4672
G1 X134.012 Y155.392 E2.4964
G1 X133.921 Y155.287 E2.5004
G1 X133.417 Y153.902 E2.5427
G1 X133.389 Y153.860 E2.5442
G1 X133.364 Y153.755 E2.5473
G1 X133.327 Y153.653 E2.5504
G1 X133.327 Y153.602 E2.5519
G1 X132.988 Y152.168 E2.5942
G1 X133.001 Y152.065 E2.5972
G1 X132.873 Y150.967 E2.6290
G1 X132.836 Y150.869 E2.6320
G1 X132.836 Y149.395 E2.6743
G1 X132.823 Y149.346 E2.6758
G1 X132.836 Y149.239 E2.6789
G1 X132.836 Y149.131 E2.6820
G1 X132.854 Y149.083 E2.6835
G1 X133.025 Y147.619 E2.7258
G1 X133.096 Y147.484 E2.7302
G1 X133.156 Y146.890 E2.7474
G1 X133.267 Y146.638 E2.7553
G1 X133.257 Y146.539 E2.7581
G1 X133.991 Y144.521 E2.8198
G1 X134.049 Y144.464 E2.8222
G1 X134.091 Y144.324 E2.8264
G1 X134.470 Y143.719 E2.8469
G1 X134.508 Y143.544 E2.8520
G1 X135.463 Y142.092 E2.9020
G1 X135.585 Y142.004 E2.9063
G1 X135.797 Y141.630 E2.9186
G1 X136.238 Y141.227 E2.9358
G1 X136.305 Y141.089 E2.9402
G92 E0.0000
G1 E-1.0000 F1800
G1 X136.698 Y141.378 F4800
G1 E0.0000 F1800
G92 E0.0000
G1 X137.834 Y140.307 E0.0449 F1800
G1 X137.979 Y140.247 E0.0494
G1 X138.418 Y139.819 E0.0670
G1 X138.830 Y139.616 E0.0802
G1 X138.934 Y139.487 E0.0849
G1 X140.187 Y138.764 E0.1265
G1 X140.203 Y138.749 E0.1271
G1 X140.245 Y138.730 E0.1285
G1 X140.287 Y138.706 E0.1299
G1 X140.309 Y138.703 E0.1305
G1 X141.529 Y138.177 E0.1687
G1 X141.547 Y138.163 E0.1693
G1 X141.593 Y138.149 E0.1707
G1 X141.636 Y138.131 E0.1720
G1 X141.658 Y138.130 E0.1727
G1 X143.043 Y137.715 E0.2142
G1 X143.200 Y137.727 E0.2187
G1 X143.784 Y137.541 E0.2364
G1 X144.243 Y137.545 E0.2495
G1 X144.394 Y137.477 E0.2543
G1 X145.953 Y137.386 E0.2992
G1 X146.093 Y137.430 E0.3034
G1 X146.884 Y137.411 E0.3261
G1 X147.191 Y137.491 E0.3353
G1 X147.291 Y137.473 E0.3382
G1 X148.693 Y137.721 E0.3791
G1 X148.768 Y137.715 E0.3813
G1 X150.264 Y138.163 E0.4261
G1 X150.389 Y138.259 E0.4307
G1 X151.164 Y138.479 E0.4538
G1 X151.429 Y138.691 E0.4636
G1 X151.524 Y138.706 E0.4663
G1 X152.877 Y139.487 E0.5112
G1 X152.938 Y139.562 E0.5140
G1 X153.084 Y139.619 E0.5185
G1 X153.865 Y140.260 E0.5475
G1 X153.977 Y140.307 E0.5510
G1 X155.029 Y141.299 E0.5926
G1 X155.049 Y141.310 E0.5932
G1 X155.079 Y141.346 E0.5946
G1 X155.113 Y141.378 E0.5959
G1 X155.123 Y141.398 E0.5966
G1 X155.214 Y141.507 E0.6006
G1 X155.239 Y141.367 E0.6047
G1 X155.899 Y140.398 E0.6384
G1 X156.214 Y139.582 E0.6636
G1 X157.697 Y138.232 E0.7212
G1 X158.890 Y137.897 E0.7568
G1 X159.937 Y137.424 E0.7898
G1 X161.763 Y137.424 E0.8423
G1 X162.810 Y137.897 E0.8753
G1 X163.916 Y138.208 E0.9083
G1 X165.315 Y139.382 E0.9608
G1 X165.814 Y140.417 E0.9938
G1 X166.461 Y141.366 E1.0268
G1 X166.778 Y143.165 E1.0793
G1 X166.494 Y144.278 E1.1123
G1 X166.381 Y145.421 E1.1454
G1 X165.467 Y147.003 E1.1978
G1 X164.534 Y147.674 E1.2309
G1 X163.711 Y148.476 E1.2639
G1 X161.996 Y149.101 E1.3164
G1 X160.850 Y149.015 E1.3494
G1 X159.704 Y149.101 E1.3824
G1 X158.430 Y148.637 E1.4214
G1 X158.495 Y149.045 E1.4332
G1 X158.475 Y149.167 E1.4368
G1 X158.483 Y149.189 E1.4374
G1 X158.483 Y150.811 E1.4841
G1 X158.445 Y150.915 E1.4872
G1 X158.476 Y151.454 E1.5028
G1 X158.315 Y151.979 E1.5185
G1 X158.336 Y152.144 E1.5233
G1 X157.976 Y153.663 E1.5682
G1 X157.934 Y153.726 E1.5704
G1 X157.514 Y154.878 E1.6056
G1 X157.507 Y154.953 E1.6078
G1 X156.806 Y156.348 E1.6526
G1 X156.683 Y156.460 E1.6574
G1 X156.540 Y156.800 E1.6680
G1 X156.102 Y157.349 E1.6882
G1 X156.052 Y157.494 E1.6926
G1 X155.123 Y158.602 E1.7341
G1 X155.113 Y158.622 E1.7348
G1 X155.078 Y158.655 E1.7362
G1 X155.048 Y158.691 E1.7375
G1 X155.029 Y158.702 E1.7382
G1 X153.977 Y159.694 E1.7797
G1 X153.907 Y159.723 E1.7819
G1 X152.924 Y160.454 E1.8171
G1 X152.877 Y160.513 E1.8193
G1 X151.525 Y161.294 E1.8641
G1 X151.361 Y161.320 E1.8689
G1 X150.904 Y161.625 E1.8847
G1 X150.377 Y161.750 E1.9002
G1 X150.265 Y161.837 E1.9043
G1 X148.769 Y162.285 E1.9492
G1 X148.612 Y162.273 E1.9537
G1 X148.027 Y162.459 E1.9714
G1 X147.568 Y162.455 E1.9845
G1 X147.417 Y162.523 E1.9893
G1 X145.974 Y162.607 E2.0308
G1 X145.953 Y162.614 E2.0315
G1 X145.906 Y162.611 E2.0328
G1 X145.859 Y162.614 E2.0342
G1 X145.837 Y162.607 E2.0348
G1 X144.510 Y162.530 E2.0730
G1 X144.488 Y162.534 E2.0737
G1 X144.441 Y162.526 E2.0750
G1 X144.394 Y162.523 E2.0764
G1 X144.374 Y162.514 E2.0770
G1 X142.951 Y162.263 E2.1186
G1 X142.816 Y162.182 E2.1231
G1 X142.210 Y162.086 E2.1407
G1 X141.802 Y161.877 E2.1539
G1 X141.636 Y161.869 E2.1587
G1 X140.309 Y161.297 E2.2002
G1 X140.287 Y161.293 E2.2008
G1 X140.246 Y161.270 E2.2022
G1 X140.203 Y161.251 E2.2035
G1 X140.186 Y161.235 E2.2042
G1 X139.035 Y160.571 E2.2424
G1 X139.014 Y160.565 E2.2430
G1 X138.976 Y160.536 E2.2444
G1 X138.935 Y160.513 E2.2458
G1 X138.921 Y160.496 E2.2464
G1 X137.761 Y159.632 E2.2879
G1 X137.672 Y159.492 E2.2927
G1 X137.211 Y159.194 E2.3085
G1 X136.887 Y158.760 E2.3240
G1 X136.763 Y158.691 E2.3281
G1 X135.834 Y157.584 E2.3697
G1 X135.816 Y157.570 E2.3703
G1 X135.790 Y157.531 E2.3717
G1 X135.759 Y157.495 E2.3730
G1 X135.752 Y157.473 E2.3737
G1 X134.958 Y156.266 E2.4152
G1 X134.937 Y156.172 E2.4180
G1 X134.832 Y156.055 E2.4225
G1 X134.422 Y155.132 E2.4515
G1 X134.342 Y155.040 E2.4550
G1 X133.848 Y153.682 E2.4965
G1 X133.835 Y153.663 E2.4972
G1 X133.824 Y153.617 E2.4986
G1 X133.808 Y153.572 E2.4999
G1 X133.808 Y153.550 E2.5006
G1 X133.475 Y152.144 E2.5421
G1 X133.485 Y152.069 E2.5443
G1 X133.343 Y150.852 E2.5795
G1 X133.316 Y150.781 E2.5817
G1 X133.316 Y149.335 E2.6232
G1 X133.310 Y149.314 E2.6238
G1 X133.316 Y149.267 E2.6252
G1 X133.316 Y149.219 E2.6266
G1 X133.324 Y149.198 E2.6272
G1 X133.492 Y147.763 E2.6687
G1 X133.564 Y147.624 E2.6733
G1 X133.626 Y147.013 E2.6909
G1 X133.757 Y146.716 E2.7002
G1 X133.745 Y146.600 E2.7036
G1 X134.405 Y144.788 E2.7590
G1 X134.474 Y144.720 E2.7618
G1 X134.532 Y144.524 E2.7677
G1 X134.921 Y143.903 E2.7887
G1 X134.958 Y143.734 E2.7937
G1 X135.816 Y142.430 E2.8385
G1 X135.951 Y142.332 E2.8433
G1 X136.177 Y141.933 E2.8565
G1 X136.630 Y141.520 E2.8741
G1 X136.698 Y141.378 E2.8786
G92 E0.0000
G1 E-1.0000 F1800
; feature inner perimeter
G1 X140.669 Y145.606 F4800
G1 E0.0000 F1800
G92 E0.0000
G1 X141.214 Y145.028 E0.0228 F1350
G1 X141.823 Y144.517 E0.0457
G1 X142.488 Y144.080 E0.0685
G1 X143.198 Y143.723 E0.0914
G1 X143.945 Y143.451 E0.1142
G1 X144.719 Y143.268 E0.1371
G1 X145.508 Y143.175 E0.1599
G1 X146.303 Y143.175 E0.1828
G1 X147.093 Y143.268 E0.2056
G1 X147.866 Y143.451 E0.2284
G1 X148.613 Y143.723 E0.2513
G1 X149.324 Y144.080 E0.2741
G1 X149.988 Y144.517 E0.2970
G1 X150.597 Y145.027 E0.3198
G1 X151.143 Y145.606 E0.3427
G1 X151.617 Y146.243 E0.3655
G1 X152.015 Y146.932 E0.3884
G1 X152.330 Y147.662 E0.4112
G1 X152.558 Y148.423 E0.4341
