; G-Code generated by Simplify3D(R) Version 4.1.2
; Dec 31, 2023 at 6:38:51 PM
; Settings Summary
;   processName,Process1
;   applyToModels,MotorSpacer,MotorSpacer(2)
;   profileName,Default (modified)
;   profileVersion,2015-05-01 08:00:00
;   baseProfile,
;   printMaterial,PLA
;   printQuality,Medium
;   printExtruders,
;   extruderName,Primary Extruder
;   extruderToolheadNumber,0
;   extruderDiameter,0.4
;   extruderAutoWidth,1
;   extruderWidth,0.48
;   extrusionMultiplier,1
;   extruderUseRetract,1
;   extruderRetractionDistance,10
;   extruderExtraRestartDistance,0
;   extruderRetractionZLift,0
;   extruderRetractionSpeed,1800
;   extruderUseCoasting,1
;   extruderCoastingDistance,0.2
;   extruderUseWipe,0
;   extruderWipeDistance,5
;   primaryExtruder,0
;   layerHeight,0.16
;   topSolidLayers,3
;   bottomSolidLayers,3
;   perimeterOutlines,2
;   printPerimetersInsideOut,1
;   startPointOption,2
;   startPointOriginX,0
;   startPointOriginY,0
;   sequentialIslands,0
;   spiralVaseMode,0
;   firstLayerHeightPercentage,90
;   firstLayerWidthPercentage,100
;   firstLayerUnderspeed,0.5
;   useRaft,0
;   raftExtruder,0
;   raftTopLayers,3
;   raftBaseLayers,2
;   raftOffset,3
;   raftSeparationDistance,0.14
;   raftTopInfill,100
;   aboveRaftSpeedMultiplier,0.3
;   useSkirt,1
;   skirtExtruder,0
;   skirtLayers,1
;   skirtOutlines,2
;   skirtOffset,4
;   usePrimePillar,0
;   primePillarExtruder,999
;   primePillarWidth,12
;   primePillarLocation,7
;   primePillarSpeedMultiplier,1
;   useOozeShield,0
;   oozeShieldExtruder,999
;   oozeShieldOffset,2
;   oozeShieldOutlines,1
;   oozeShieldSidewallShape,1
;   oozeShieldSidewallAngle,30
;   oozeShieldSpeedMultiplier,1
;   infillExtruder,0
;   internalInfillPattern,Rectilinear
;   externalInfillPattern,Rectilinear
;   infillPercentage,20
;   outlineOverlapPercentage,25
;   infillExtrusionWidthPercentage,100
;   minInfillLength,5
;   infillLayerInterval,2
;   internalInfillAngles,45,-45
;   overlapInternalInfillAngles,0
;   externalInfillAngles,45,-45
;   generateSupport,0
;   supportExtruder,0
;   supportInfillPercentage,30
;   supportExtraInflation,0
;   supportBaseLayers,0
;   denseSupportExtruder,0
;   denseSupportLayers,0
;   denseSupportInfillPercentage,70
;   supportLayerInterval,2
;   supportHorizontalPartOffset,0.5
;   supportUpperSeparationLayers,1
;   supportLowerSeparationLayers,1
;   supportType,0
;   supportGridSpacing,4
;   maxOverhangAngle,45
;   supportAngles,0
;   temperatureName,Primary Extruder
;   temperatureNumber,0
;   temperatureSetpointCount,1
;   temperatureSetpointLayers,1
;   temperatureSetpointTemperatures,195
;   temperatureStabilizeAtStartup,1
;   temperatureHeatedBed,0
;   fanLayers,1,2
;   fanSpeeds,0,100
;   blipFanToFullPower,0
;   adjustSpeedForCooling,1
;   minSpeedLayerTime,15
;   minCoolingSpeedSlowdown,20
;   increaseFanForCooling,0
;   minFanLayerTime,45
;   maxCoolingFanSpeed,100
;   increaseFanForBridging,0
;   bridgingFanSpeed,100
;   use5D,1
;   relativeEdistances,0
;   allowEaxisZeroing,1
;   independentExtruderAxes,0
;   includeM10123,0
;   stickySupport,1
;   applyToolheadOffsets,0
;   gcodeXoffset,0
;   gcodeYoffset,0
;   gcodeZoffset,0
;   overrideMachineDefinition,1
;   machineTypeOverride,0
;   strokeXoverride,300
;   strokeYoverride,300
;   strokeZoverride,400
;   originOffsetXoverride,0
;   originOffsetYoverride,0
;   originOffsetZoverride,0
;   homeXdirOverride,-1
;   homeYdirOverride,-1
;   homeZdirOverride,-1
;   flipXoverride,1
;   flipYoverride,-1
;   flipZoverride,1
;   toolheadOffsets,0,0|0,0|0,0|0,0|0,0|0,0
;   overrideFirmwareConfiguration,0
;   firmwareTypeOverride,RepRap (Marlin/Repetier/Sprinter)
;   GPXconfigOverride,r2
;   baudRateOverride,115200
;   overridePrinterModels,0
;   printerModelsOverride
;   startingGcode,G28 ; home all axes
;   layerChangeGcode,
;   retractionGcode,
;   toolChangeGcode,
;   endingGcode,M104 S0 ; turn off extruder,M140 S0 ; turn off bed,M84 ; disable motors
;   exportFileFormat,x3g
;   celebration,0
;   celebrationSong,Random Song
;   postProcessing,
;   defaultSpeed,1800
;   outlineUnderspeed,0.5
;   solidInfillUnderspeed,0.8
;   supportUnderspeed,0.8
;   rapidXYspeed,4800
;   rapidZspeed,1002
;   minBridgingArea,50
;   bridgingExtraInflation,0
;   bridgingExtrusionMultiplier,1
;   bridgingSpeedMultiplier,1
;   useFixedBridgingAngle,0
;   fixedBridgingAngle,0
;   applyBridgingToPerimeters,0
;   filamentDiameters,1.75|1.75|1.75|1.75|1.75|1.75
;   filamentPricesPerKg,46|46|46|46|46|46
;   filamentDensities,1.25|1.25|1.25|1.25|1.25|1.25
;   useMinPrintHeight,0
;   minPrintHeight,0
;   useMaxPrintHeight,0
;   maxPrintHeight,0
;   useDiaphragm,0
;   diaphragmLayerInterval,20
;   robustSlicing,1
;   mergeAllIntoSolid,0
;   onlyRetractWhenCrossingOutline,1
;   retractBetweenLayers,1
;   useRetractionMinTravel,0
;   retractionMinTravel,3
;   retractWhileWiping,0
;   onlyWipeOutlines,1
;   avoidCrossingOutline,0
;   maxMovementDetourFactor,3
;   toolChangeRetractionDistance,12
;   toolChangeExtraRestartDistance,-0.5
;   toolChangeRetractionSpeed,600
;   externalThinWallType,0
;   internalThinWallType,2
;   thinWallAllowedOverlapPercentage,10
;   singleExtrusionMinLength,1
;   singleExtrusionMinPrintingWidthPercentage,50
;   singleExtrusionMaxPrintingWidthPercentage,200
;   singleExtrusionEndpointExtension,0.2
;   horizontalSizeCompensation,0
G90
M82
M106 S0
M104 S195 T0
M109 S195 T0
G28 ; home all axes
; process Process1
; layer 1, Z = 0.144
T0
G92 E0.0000
G1 E-10.0000 F1800
; feature skirt
; tool H0.144 W0.480
G1 Z0.144 F1002
G1 X126.693 Y104.718 F4800
G1 E0.0000 F1800
G92 E0.0000
G1 X127.218 Y104.193 E0.0213 F900
G1 X128.072 Y103.572 E0.0517
G1 X128.734 Y103.235 E0.0730
G1 X129.650 Y102.937 E0.1007
G1 X130.196 Y102.829 E0.1167
G1 X130.722 Y102.787 E0.1319
G1 X130.908 Y102.780 E0.1372
G1 X169.529 Y102.792 E1.2471
G1 X170.262 Y102.909 E1.2684
G1 X171.177 Y103.206 E1.2960
G1 X171.683 Y103.439 E1.3120
G1 X172.291 Y103.812 E1.3325
G1 X172.728 Y104.157 E1.3485
G1 X173.409 Y104.837 E1.3762
G1 X173.846 Y105.439 E1.3976
G1 X174.325 Y106.379 E1.4279
G1 X174.555 Y107.086 E1.4493
G1 X174.691 Y107.945 E1.4742
G1 X174.720 Y108.314 E1.4849
G1 X174.720 Y146.706 E2.5882
G1 X174.684 Y147.117 E2.6000
G1 X174.516 Y148.068 E2.6278
G1 X174.234 Y148.844 E2.6515
G1 X173.647 Y149.860 E2.6852
G1 X173.529 Y150.002 E2.6905
G1 X173.846 Y150.439 E2.7060
G1 X174.325 Y151.379 E2.7364
G1 X174.555 Y152.086 E2.7577
G1 X174.691 Y152.945 E2.7827
G1 X174.720 Y153.314 E2.7934
G1 X174.720 Y191.706 E3.8966
G1 X174.684 Y192.117 E3.9085
G1 X174.516 Y193.068 E3.9362
G1 X174.234 Y193.844 E3.9600
G1 X173.647 Y194.860 E3.9937
G1 X173.116 Y195.493 E4.0174
G1 X172.297 Y196.181 E4.0482
G1 X171.775 Y196.513 E4.0659
G1 X171.056 Y196.848 E4.0887
G1 X170.466 Y197.034 E4.1065
G1 X169.617 Y197.184 E4.1313
G1 X169.206 Y197.220 E4.1431
G1 X130.794 Y197.220 E5.2470
G1 X130.383 Y197.184 E5.2588
G1 X129.432 Y197.016 E5.2866
G1 X128.656 Y196.734 E5.3103
G1 X127.640 Y196.147 E5.3440
G1 X127.007 Y195.616 E5.3678
G1 X126.319 Y194.797 E5.3985
G1 X125.987 Y194.275 E5.4163
G1 X125.652 Y193.556 E5.4391
G1 X125.466 Y192.966 E5.4569
G1 X125.316 Y192.117 E5.4817
G1 X125.280 Y191.706 E5.4935
G1 X125.280 Y153.315 E6.5967
G1 X125.309 Y152.945 E6.6074
G1 X125.431 Y152.178 E6.6297
G1 X125.582 Y151.642 E6.6457
G1 X125.855 Y150.983 E6.6662
G1 X126.127 Y150.497 E6.6822
G1 X126.489 Y149.999 E6.6999
G1 X126.319 Y149.797 E6.7075
G1 X125.987 Y149.275 E6.7253
G1 X125.652 Y148.556 E6.7481
G1 X125.466 Y147.966 E6.7658
G1 X125.316 Y147.117 E6.7906
G1 X125.280 Y146.706 E6.8025
G1 X125.280 Y108.315 E7.9057
G1 X125.309 Y107.945 E7.9164
G1 X125.431 Y107.178 E7.9387
G1 X125.582 Y106.642 E7.9547
G1 X125.855 Y105.983 E7.9752
G1 X126.127 Y105.497 E7.9912
G1 X126.693 Y104.718 E8.0189
G92 E0.0000
G1 E-10.0000 F1800
G1 X127.059 Y105.031 F4800
G1 E0.0000 F1800
G92 E0.0000
G1 X127.531 Y104.559 E0.0192 F900
G1 X128.324 Y103.983 E0.0473
G1 X128.918 Y103.680 E0.0665
G1 X129.771 Y103.403 E0.0923
G1 X130.262 Y103.305 E0.1067
G1 X130.751 Y103.267 E0.1208
G1 X130.918 Y103.260 E0.1256
G1 X169.491 Y103.272 E1.2340
G1 X170.150 Y103.377 E1.2532
G1 X171.002 Y103.654 E1.2790
G1 X171.456 Y103.863 E1.2933
G1 X172.016 Y104.206 E1.3122
G1 X172.409 Y104.516 E1.3266
G1 X173.043 Y105.150 E1.3523
G1 X173.435 Y105.690 E1.3715
G1 X173.880 Y106.563 E1.3997
G1 X174.087 Y107.198 E1.4189
G1 X174.214 Y108.001 E1.4422
G1 X174.240 Y108.333 E1.4518
G1 X174.240 Y146.685 E2.5539
G1 X174.208 Y147.054 E2.5646
G1 X174.051 Y147.944 E2.5905
G1 X173.797 Y148.641 E2.6118
G1 X173.253 Y149.584 E2.6431
G1 X172.899 Y150.006 E2.6589
G1 X173.043 Y150.150 E2.6648
G1 X173.435 Y150.690 E2.6840
G1 X173.880 Y151.564 E2.7122
G1 X174.087 Y152.198 E2.7313
G1 X174.214 Y153.001 E2.7547
G1 X174.240 Y153.333 E2.7643
G1 X174.240 Y191.685 E3.8664
G1 X174.208 Y192.054 E3.8770
G1 X174.051 Y192.944 E3.9030
G1 X173.797 Y193.641 E3.9243
G1 X173.253 Y194.584 E3.9556
G1 X172.776 Y195.152 E3.9769
G1 X172.012 Y195.793 E4.0056
G1 X171.544 Y196.091 E4.0215
G1 X170.882 Y196.400 E4.0425
G1 X170.352 Y196.567 E4.0585
G1 X169.554 Y196.708 E4.0818
G1 X169.185 Y196.740 E4.0924
G1 X130.815 Y196.740 E5.1950
G1 X130.446 Y196.708 E5.2057
G1 X129.556 Y196.551 E5.2316
G1 X128.859 Y196.297 E5.2530
G1 X127.916 Y195.752 E5.2843
G1 X127.348 Y195.276 E5.3056
G1 X126.707 Y194.513 E5.3342
G1 X126.409 Y194.044 E5.3502
G1 X126.100 Y193.382 E5.3712
G1 X125.933 Y192.852 E5.3871
G1 X125.792 Y192.054 E5.4104
G1 X125.760 Y191.685 E5.4211
G1 X125.760 Y153.333 E6.5232
G1 X125.786 Y153.001 E6.5327
G1 X125.900 Y152.281 E6.5537
G1 X126.036 Y151.800 E6.5681
G1 X126.287 Y151.193 E6.5869
G1 X126.532 Y150.756 E6.6013
G1 X127.059 Y150.031 E6.6271
G1 X127.104 Y149.985 E6.6289
G1 X126.707 Y149.513 E6.6467
G1 X126.409 Y149.044 E6.6626
G1 X126.100 Y148.382 E6.6836
G1 X125.933 Y147.852 E6.6996
G1 X125.792 Y147.054 E6.7229
G1 X125.760 Y146.685 E6.7335
G1 X125.760 Y108.333 E7.8356
G1 X125.786 Y108.001 E7.8452
G1 X125.900 Y107.281 E7.8662
G1 X126.036 Y106.800 E7.8805
G1 X126.287 Y106.193 E7.8994
G1 X126.532 Y105.756 E7.9138
G1 X127.059 Y105.031 E7.9396
G92 E0.0000
G1 E-10.0000 F1800
; feature inner perimeter
G1 X130.804 Y108.304 F4800
G1 E0.0000 F1800
G92 E0.0000
G1 X130.837 Y108.275 E0.0013 F675
G1 X130.874 Y108.253 E0.0025
G1 X130.914 Y108.236 E0.0038
G1 X130.957 Y108.226 E0.0050
G1 X131.028 Y108.220 E0.0071
G1 X168.972 Y108.220 E1.0975
G1 X169.043 Y108.226 E1.0995
G1 X169.086 Y108.236 E1.1008
G1 X169.126 Y108.253 E1.1020
G1 X169.163 Y108.275 E1.1033
G1 X169.196 Y108.304 E1.1045
G1 X169.225 Y108.337 E1.1058
G1 X169.248 Y108.374 E1.1070
G1 X169.264 Y108.414 E1.1083
G1 X169.274 Y108.457 E1.1095
G1 X169.280 Y108.528 E1.1116
G1 X169.280 Y146.469 E2.2019
G1 X169.273 Y146.548 E2.2042
G1 X169.261 Y146.595 E2.2056
G1 X169.240 Y146.639 E2.2070
G1 X169.212 Y146.678 E2.2083
G1 X169.178 Y146.712 E2.2097
G1 X169.139 Y146.740 E2.2111
G1 X169.095 Y146.761 E2.2125
G1 X169.048 Y146.773 E2.2139
G1 X168.969 Y146.780 E2.2162
G1 X131.031 Y146.780 E3.3064
G1 X130.952 Y146.773 E3.3087
G1 X130.905 Y146.761 E3.3101
G1 X130.861 Y146.740 E3.3115
G1 X130.822 Y146.712 E3.3129
G1 X130.788 Y146.678 E3.3142
G1 X130.760 Y146.639 E3.3156
G1 X130.739 Y146.595 E3.3170
G1 X130.727 Y146.548 E3.3184
G1 X130.720 Y146.469 E3.3207
G1 X130.720 Y108.528 E4.4110
G1 X130.724 Y108.482 E4.4123
G1 X130.726 Y108.457 F675
G1 X130.736 Y108.414
G1 X130.753 Y108.374
G1 X130.775 Y108.337
G1 X130.804 Y108.304
; feature outer perimeter
G1 X130.463 Y107.963 F4800
G92 E0.0000
G1 X130.554 Y107.886 E0.0034 F450
G1 X130.655 Y107.824 E0.0068
G1 X130.765 Y107.778 E0.0103
G1 X130.881 Y107.750 E0.0137
G1 X131.009 Y107.740 E0.0174
G1 X168.991 Y107.740 E1.1088
G1 X169.119 Y107.750 E1.1125
G1 X169.235 Y107.778 E1.1160
G1 X169.345 Y107.824 E1.1194
G1 X169.446 Y107.886 E1.1228
G1 X169.537 Y107.963 E1.1262
G1 X169.614 Y108.054 E1.1297
G1 X169.676 Y108.155 E1.1331
G1 X169.722 Y108.265 E1.1365
G1 X169.750 Y108.381 E1.1399
G1 X169.760 Y108.509 E1.1436
G1 X169.760 Y146.489 E2.2350
G1 X169.748 Y146.632 E2.2392
G1 X169.713 Y146.760 E2.2430
G1 X169.657 Y146.880 E2.2468
G1 X169.582 Y146.988 E2.2506
G1 X169.488 Y147.081 E2.2544
G1 X169.380 Y147.157 E2.2582
G1 X169.260 Y147.213 E2.2620
G1 X169.132 Y147.248 E2.2658
G1 X168.989 Y147.260 E2.2699
G1 X131.011 Y147.260 E3.3613
G1 X130.868 Y147.248 E3.3654
G1 X130.740 Y147.213 E3.3692
G1 X130.620 Y147.157 E3.3730
G1 X130.512 Y147.081 E3.3768
G1 X130.418 Y146.988 E3.3806
G1 X130.343 Y146.880 E3.3844
G1 X130.287 Y146.760 E3.3882
G1 X130.252 Y146.632 E3.3920
G1 X130.240 Y146.490 E3.3961
G1 X130.240 Y108.509 E4.4875
G1 X130.250 Y108.382 E4.4912
G1 X130.278 Y108.265 E4.4946
G1 X130.324 Y108.155 E4.4981
G1 X130.344 Y108.123 E4.4992
G1 X130.386 Y108.054 F450
G1 X130.463 Y107.963
; feature inner perimeter
G1 X140.112 Y116.906 F4800
G92 E0.0000
G1 X139.915 Y117.187 E0.0099 F675
G1 X139.769 Y117.499 E0.0198
G1 X139.680 Y117.831 E0.0296
G1 X139.650 Y118.174 E0.0395
G1 X139.680 Y118.516 E0.0494
G1 X139.769 Y118.848 E0.0593
G1 X139.915 Y119.160 E0.0692
G1 X140.112 Y119.442 E0.0791
G1 X140.355 Y119.685 E0.0889
G1 X140.637 Y119.882 E0.0988
G1 X140.949 Y120.028 E0.1087
G1 X141.282 Y120.117 E0.1186
G1 X141.623 Y120.146 E0.1285
G1 X141.966 Y120.116 E0.1383
G1 X142.298 Y120.027 E0.1482
G1 X142.610 Y119.882 E0.1581
G1 X142.892 Y119.684 E0.1680
G1 X143.134 Y119.442 E0.1779
G1 X143.332 Y119.160 E0.1878
G1 X143.477 Y118.848 E0.1976
G1 X143.566 Y118.516 E0.2075
G1 X143.596 Y118.174 E0.2174
G1 X143.566 Y117.831 E0.2273
G1 X143.477 Y117.499 E0.2372
G1 X143.332 Y117.187 E0.2470
G1 X143.134 Y116.906 E0.2569
G1 X142.891 Y116.662 E0.2668
G1 X142.610 Y116.465 E0.2767
G1 X142.298 Y116.320 E0.2866
G1 X141.966 Y116.231 E0.2965
G1 X141.623 Y116.201 E0.3063
G1 X141.281 Y116.231 E0.3162
G1 X140.948 Y116.320 E0.3261
G1 X140.637 Y116.465 E0.3360
G1 X140.355 Y116.662 E0.3459
G1 X140.253 Y116.764 E0.3500
G1 X140.112 Y116.906 F675
; feature outer perimeter
G1 X140.481 Y117.215 F4800
G92 E0.0000
G1 X140.332 Y117.428 E0.0075 F450
G1 X140.222 Y117.664 E0.0149
G1 X140.155 Y117.915 E0.0224
G1 X140.132 Y118.174 E0.0299
G1 X140.155 Y118.432 E0.0373
G1 X140.222 Y118.684 E0.0448
G1 X140.332 Y118.919 E0.0523
G1 X140.481 Y119.132 E0.0597
G1 X140.665 Y119.316 E0.0672
G1 X140.878 Y119.465 E0.0747
G1 X141.113 Y119.575 E0.0822
G1 X141.366 Y119.642 E0.0897
G1 X141.623 Y119.665 E0.0971
G1 X141.882 Y119.642 E0.1046
G1 X142.133 Y119.575 E0.1120
G1 X142.369 Y119.465 E0.1195
G1 X142.583 Y119.315 E0.1270
G1 X142.765 Y119.132 E0.1344
G1 X142.914 Y118.919 E0.1419
G1 X143.024 Y118.684 E0.1494
G1 X143.091 Y118.432 E0.1568
G1 X143.114 Y118.174 E0.1643
G1 X143.091 Y117.915 E0.1718
G1 X143.024 Y117.664 E0.1792
G1 X142.914 Y117.428 E0.1867
G1 X142.765 Y117.215 E0.1942
G1 X142.582 Y117.031 E0.2016
G1 X142.369 Y116.882 E0.2091
G1 X142.133 Y116.773 E0.2166
G1 X141.882 Y116.705 E0.2240
G1 X141.623 Y116.683 E0.2315
G1 X141.364 Y116.705 E0.2390
G1 X141.113 Y116.773 E0.2465
G1 X140.878 Y116.882 E0.2539
G1 X140.665 Y117.031 E0.2614
G1 X140.623 Y117.074 E0.2631
G1 X140.481 Y117.215 F450
G92 E0.0000
G1 E-10.0000 F1800
G1 X148.599 Y119.339 F4800
G1 E0.0000 F1800
G92 E0.0000
G1 X148.532 Y119.590 E0.0075 F450
G1 X148.509 Y119.849 E0.0149
G1 X148.532 Y120.107 E0.0224
G1 X148.599 Y120.359 E0.0299
G1 X148.709 Y120.594 E0.0373
G1 X148.858 Y120.807 E0.0448
G1 X149.042 Y120.991 E0.0523
G1 X149.255 Y121.140 E0.0597
G1 X149.490 Y121.250 E0.0672
G1 X149.743 Y121.317 E0.0747
G1 X150.000 Y121.340 E0.0822
G1 X150.259 Y121.317 E0.0896
G1 X150.510 Y121.250 E0.0971
G1 X150.745 Y121.140 E0.1046
G1 X150.958 Y120.991 E0.1120
G1 X151.142 Y120.807 E0.1195
G1 X151.291 Y120.594 E0.1270
G1 X151.401 Y120.359 E0.1344
G1 X151.468 Y120.107 E0.1419
G1 X151.491 Y119.849 E0.1494
G1 X151.468 Y119.590 E0.1568
G1 X151.401 Y119.339 E0.1643
G1 X151.291 Y119.103 E0.1718
G1 X151.142 Y118.890 E0.1792
G1 X150.958 Y118.706 E0.1867
G1 X150.745 Y118.557 E0.1942
G1 X150.510 Y118.448 E0.2016
G1 X150.259 Y118.380 E0.2091
G1 X150.000 Y118.358 E0.2166
G1 X149.741 Y118.380 E0.2240
G1 X149.490 Y118.448 E0.2315
